Yaru++/mimetypes/16/application-pdf.svg

<svg height="16" viewBox="0 0 4.233125 4.233125" width="16" xmlns="http://www.w3.org/2000/svg" xmlns:xlink="http://www.w3.org/1999/xlink"><linearGradient id="a" gradientUnits="userSpaceOnUse" x1="2.116711" x2="2.116711" y1=".264571" y2="3.968556"><stop offset="0" stop-color="#fff"/><stop offset=".125" stop-color="#fff" stop-opacity=".098039"/><stop offset=".92500001" stop-color="#fff" stop-opacity=".098039"/><stop offset="1" stop-color="#fff" stop-opacity=".498039"/></linearGradient><linearGradient id="b" gradientTransform="matrix(0 -.01021733 .01033057 0 -1.197959 4.642008)" gradientUnits="userSpaceOnUse" x1="441.37927" x2="40.018539" y1="240.30267" y2="395.24066"><stop offset="0" stop-color="#da1636"/><stop offset="1" stop-color="#f22c42"/></linearGradient><path d="m1.3483185.26457061c-.1902367 0-.3444309.003678-.48573259.0273883-.1413044.023732-.2826405.0730955-.3906566.18085764-.1080135.10775949-.1578347.24955066-.1813735.39116985-.0235468.1416218-.0267719.2964457-.0258485.4872856v.7652908 1.0314115c-.0007938.1900038.00238.3445631.025848.4857352.023547.1416192.073357.2834104.1813735.3911699.1080161.1077621.2493522.1571389.3906566.1808576.14130169.023732.29549589.027388.48573259.027388h1.5367831c.1902367 0 .3440949-.00362.4852167-.027388.141125-.023758.282477-.073529.3901386-.1813736.1076616-.1078441.1571653-.249413.1808576-.3906539.0236949-.1412435.0273883-.2951308.0273883-.4857352v-1.0314115-.7937109l-1.0582812-1.05828129z" opacity=".1"/><path d="m1.2845041.1322881c-.80473289 0-.89132149.0817496-.88737679.8792492v1.1050281 1.1050256c-.00394.7975022.082644.8792518.88737679.8792518h1.6645336c.8047356 0 .8873794-.081739.8873794-.8792518v-1.1050256-1.1338742l-.8598535-.8504031z" fill="url(#b)"/><g fill="#fff"><path d="m1.735598 2.5581394c.0659137-.129194.1408237-.2747544.2007813-.4208923l.023707-.057689c-.0783152-.2980142-.1252761-.5372314-.0833228-.6919119.011294-.040327.058001-.064794.1079375-.064794l.030429.0004471h.00559c.068365-.00105.1005556.085915.1042083.1197264.00603.056311-.020019.1516116-.020019.1516116 0-.038483.00151-.1006675-.022782-.1543269-.028273-.06209-.05528-.099183-.079493-.1050625-.012225.00817-.024108.025074-.028179.057601-.00843.045606-.010958.1031713-.010958.1328467 0 .1048446.020644.2432292.061212.3858852.00765-.022087.014387-.043308.019742-.063192.00832-.031337.061206-.2390639.061206-.2390639s-.013327.2765159-.031943.3601807c-.00399.01768-.00839.035166-.012973.053065.066898.1869186.1746938.3537473.3032869.4738154.050702.047385.1147363.085591.1753417.1204157.132352-.018912.2542111-.027843.3558742-.026718.1348794.00178.2338853.021727.2739767.061218.019631.019195.027596.042377.03007.068364.000582.010109-.00434.033864-.00578.039827.00146-.00722.00146-.042708-.10683-.077267-.085273-.02726-.2448672-.026412-.4363693-.00603.2214959.1083704.4372886.1622125.5056768.1299331.016721-.00815.036998-.035932.036998-.035932s-.012054.054767-.020708.068459c-.011046.014877-.032715.030989-.053259.036421-.1080009.0288152-.389136-.0378644-.634221-.1779047-.2738237.0403272-.5745419.1148246-.8155912.1938883-.2368783.4151304-.4149656.6057901-.5598427.5332602l-.053265-.026783c-.021651-.012385-.024956-.042531-.019949-.06708.016891-.08264.1205159-.2071088.3286672-.331401.022405-.013557.1222069-.066326.1222069-.066326s-.073885.071511-.091194.085544c-.1661389.1361462-.288758.3074288-.2857003.3738314l.0006006.00579c.1411305-.0201112.3527757-.3073681.6248672-.8397566m.086227.044151c-.045447.085591-.089868.1649493-.1308789.2378151.2268574-.0950475.4710233-.1558711.7034475-.199079-.031236-.021569-.06156-.04441-.090092-.068553-.1279924-.1083619-.2255728-.2435533-.2963058-.3858146-.0448576.1208516-.0981989.2492738-.1861704.4156312" stroke-width=".103663"/><path d="m2.1167101.26457061v3.70398439h.7683915c.7428341 0 .8190304-.076236.8190304-.8205807v-1.0314115-1.0582813l-.7937109-.79371089z" opacity=".1"/><path d="m.52928811 2.1165628v1.0314115c-.00365.7443342.076199.8205807.81903039.8205807h1.5367831c.7428341 0 .8190304-.076236.8190304-.8205807v-1.0314115z" opacity=".1"/></g><path d="m1.3483185.0000003c-.1902367 0-.3444309.003678-.48573259.0273883-.1413044.023732-.2826405.0730955-.3906566.18085762-.1080135.10775949-.1578347.2495533-.1813735.39116985-.0235468.14162449-.0267613.29644573-.0258485.48728563v1.0298611 1.0314115c-.0007938.1900038.00238.3445631.025848.4857352.023547.1416192.073357.2834104.1813735.3911699.1080161.1077621.2493522.1571389.3906566.1808576.14130169.023732.29549589.027388.48573259.027388h1.5367831c.1902367 0 .3440949-.00362.4852167-.027388.141125-.023758.282477-.073529.3901386-.1813736.1076616-.1078441.1571653-.249413.1808576-.3906539.0236949-.1412435.0273883-.2951308.0273883-.4857352v-1.0314115-1.1678292l-.9487333-.9487333zm0 .26457031h1.5621026l.7937109.79371089v1.0582813 1.0314115c0 .7443448-.076196.8205807-.8190304.8205807h-1.5367831c-.74283149 0-.82268139-.076246-.81903039-.8205807v-1.0314115-1.0314115c-.0036405-.74433417.0761989-.82058069.81903039-.82058069z" opacity=".4"/><path d="m1.3483185.26457061c-.74283149 0-.82267089.0762465-.81903039.82058069v1.0314115 1.0314115c-.00365.7443342.076199.8205807.81903039.8205807h1.5367831c.7428341 0 .8190304-.076236.8190304-.8205807v-1.0314115-1.0582813l-.7937109-.79371089zm0 .26457031h1.5621026l.5291406.52914058v1.0582813 1.0314115c0 .1815667-.00582.3159975-.019631.3984058-.013811.082406-.029841.09959-.034103.1038651-.00426.00426-.021245.020293-.1033491.034103-.082112.013816-.2161962.019636-.3973767.019636h-1.5367834c-.1811778 0-.315397-.0063-.39788729-.02016-.082493-.013837-.1000155-.029235-.104381-.033587-.00437-.00437-.019949-.021324-.03359-.1033491-.013625-.08203-.019499-.216564-.018599-.3978899v-.0005292-1.0319062-1.0319274-.0005291c-.0007937-.1813286.00497-.31585996.018599-.39788998.013625-.08203.029222-.0989916.03359-.1033491.00436-.004365.02188-.0197369.104381-.0335872.08249-.013837.21670949-.0201603.39788729-.0201603z" fill="url(#a)" opacity=".4"/><path d="m3.704132 1.3228519v-.2645704l-.7937109-.79371089h-.2645704v.40494339.0155303.008334c0 .5476103.073304.6320506.6221715.6293652z" fill="#830e21" opacity=".6"/><path d="m3.704132 1.058181-.7937109-.79361039v.29438474.0128317.006879c0 .45177765.020822.48176405.4736364.47954955z" fill="#f66f7e"/></svg>

<?xml version="1.0" encoding="UTF-8" standalone="no"?>
<svg
   xmlns:dc="http://purl.org/dc/elements/1.1/"
   xmlns:cc="http://creativecommons.org/ns#"
   xmlns:rdf="http://www.w3.org/1999/02/22-rdf-syntax-ns#"
   xmlns:svg="http://www.w3.org/2000/svg"
   xmlns="http://www.w3.org/2000/svg"
   xmlns:xlink="http://www.w3.org/1999/xlink"
   xmlns:sodipodi="http://sodipodi.sourceforge.net/DTD/sodipodi-0.dtd"
   xmlns:inkscape="http://www.inkscape.org/namespaces/inkscape"
   height="16"
   viewBox="0 0 4.233125 4.233125"
   width="16"
   version="1.1"
   id="svg33"
   sodipodi:docname="application-pdf.svg"
   inkscape:version="0.92.5 (2060ec1f9f, 2020-04-08)">
  <metadata
     id="metadata39">
    <rdf:RDF>
      <cc:Work
         rdf:about="">
        <dc:format>image/svg+xml</dc:format>
        <dc:type
           rdf:resource="http://purl.org/dc/dcmitype/StillImage" />
      </cc:Work>
    </rdf:RDF>
  </metadata>
  <defs
     id="defs37">
    <linearGradient
       gradientTransform="matrix(0.26457031,0,0,0.26457031,-84.662351,-62.438592)"
       inkscape:collect="always"
       xlink:href="#linearGradient927"
       id="linearGradient993"
       x1="328"
       y1="237"
       x2="328"
       y2="251"
       gradientUnits="userSpaceOnUse" />
    <linearGradient
       inkscape:collect="always"
       id="linearGradient927">
      <stop
         style="stop-color:#ffffff;stop-opacity:1;"
         offset="0"
         id="stop923" />
      <stop
         id="stop933"
         offset="0.125"
         style="stop-color:#ffffff;stop-opacity:0.09803922" />
      <stop
         id="stop931"
         offset="0.92500001"
         style="stop-color:#ffffff;stop-opacity:0.09803922" />
      <stop
         style="stop-color:#ffffff;stop-opacity:0.49803922"
         offset="1"
         id="stop925" />
    </linearGradient>
    <linearGradient
       inkscape:collect="always"
       xlink:href="#linearGradient4246"
       id="linearGradient920"
       gradientUnits="userSpaceOnUse"
       gradientTransform="matrix(0,-0.01021733,0.01033057,0,-1.1979591,4.6420081)"
       x1="441.37927"
       y1="240.30267"
       x2="40.018539"
       y2="395.24066" />
    <linearGradient
       inkscape:collect="always"
       id="linearGradient4246">
      <stop
         style="stop-color:#da1636;stop-opacity:1"
         offset="0"
         id="stop4248" />
      <stop
         style="stop-color:#f22c42;stop-opacity:1"
         offset="1"
         id="stop4250" />
    </linearGradient>
  </defs>
  <sodipodi:namedview
     pagecolor="#ffffff"
     bordercolor="#666666"
     borderopacity="1"
     objecttolerance="10"
     gridtolerance="10"
     guidetolerance="10"
     inkscape:pageopacity="0"
     inkscape:pageshadow="2"
     inkscape:window-width="834"
     inkscape:window-height="480"
     id="namedview35"
     showgrid="false"
     inkscape:zoom="14.75"
     inkscape:cx="8"
     inkscape:cy="8"
     inkscape:window-x="0"
     inkscape:window-y="28"
     inkscape:window-maximized="0"
     inkscape:current-layer="svg33" />
  <linearGradient
     id="a"
     gradientUnits="userSpaceOnUse"
     x1="328"
     x2="328"
     y1="237"
     y2="251">
    <stop
       offset="0"
       stop-color="#fff"
       id="stop2" />
    <stop
       offset=".125"
       stop-color="#fff"
       stop-opacity=".098039"
       id="stop4" />
    <stop
       offset=".92500001"
       stop-color="#fff"
       stop-opacity=".098039"
       id="stop6" />
    <stop
       offset="1"
       stop-color="#fff"
       stop-opacity=".498039"
       id="stop8" />
  </linearGradient>
  <clipPath
     id="b">
    <path
       d="m325.09646 237c-2.80769 0-3.10979.28839-3.09603 3.10176v3.89824 3.89824c-.0138 2.81337.28834 3.10176 3.09603 3.10176h5.8075c2.8077 0 3.09604-.28835 3.09604-3.10176v-3.89824-3.89824c0-2.8134-.28835-3.10176-3.09604-3.10176z"
       id="path11" />
  </clipPath>
  <linearGradient
     id="c"
     gradientTransform="matrix(0 -.00953618 -.00953591 0 5.440709 4.473642)"
     gradientUnits="userSpaceOnUse"
     x1="459.03448"
     x2="35.310345"
     y1="419.23337"
     y2="207.36522">
    <stop
       offset="0"
       stop-color="#da1636"
       id="stop14" />
    <stop
       offset="1"
       stop-color="#f22c42"
       id="stop16" />
  </linearGradient>
  <path
     style="color:#000000;font-style:normal;font-variant:normal;font-weight:normal;font-stretch:normal;font-size:medium;line-height:normal;font-family:sans-serif;font-variant-ligatures:normal;font-variant-position:normal;font-variant-caps:normal;font-variant-numeric:normal;font-variant-alternates:normal;font-feature-settings:normal;text-indent:0;text-align:start;text-decoration:none;text-decoration-line:none;text-decoration-style:solid;text-decoration-color:#000000;letter-spacing:normal;word-spacing:normal;text-transform:none;writing-mode:lr-tb;direction:ltr;text-orientation:mixed;dominant-baseline:auto;baseline-shift:baseline;text-anchor:start;white-space:normal;shape-padding:0;clip-rule:nonzero;display:inline;overflow:visible;visibility:visible;opacity:0.1;isolation:auto;mix-blend-mode:normal;color-interpolation:sRGB;color-interpolation-filters:linearRGB;solid-color:#000000;solid-opacity:1;vector-effect:none;fill:#000000;fill-opacity:1;fill-rule:nonzero;stroke:none;stroke-width:0.52914065;stroke-linecap:butt;stroke-linejoin:miter;stroke-miterlimit:4;stroke-dasharray:none;stroke-dashoffset:0;stroke-opacity:1;marker:none;color-rendering:auto;image-rendering:auto;shape-rendering:auto;text-rendering:auto;enable-background:accumulate"
     d="m 1.3483185,0.26457061 c -0.1902367,0 -0.3444309,0.003678 -0.48573259,0.0273883 -0.1413044,0.023732 -0.2826405,0.0730955 -0.3906566,0.18085764 -0.1080135,0.10775949 -0.1578347,0.24955066 -0.1813735,0.39116985 -0.0235468,0.1416218 -0.0267719,0.2964457 -0.0258485,0.4872856 v 0.7652908 1.0314115 c -7.938e-4,0.1900038 0.00238,0.3445631 0.025848,0.4857352 0.023547,0.1416192 0.073357,0.2834104 0.1813735,0.3911699 0.1080161,0.1077621 0.2493522,0.1571389 0.3906566,0.1808576 C 1.0038871,4.229469 1.1580813,4.233125 1.348318,4.233125 h 1.5367831 c 0.1902367,0 0.3440949,-0.00362 0.4852167,-0.027388 C 3.5114428,4.181979 3.6527948,4.132208 3.7604564,4.0243634 3.868118,3.9165193 3.9176217,3.7749504 3.941314,3.6337095 3.9650089,3.492466 3.9687023,3.3385787 3.9687023,3.1479743 V 2.1165628 1.3228519 L 2.9104211,0.26457061 Z"
     id="path997"
     inkscape:connector-curvature="0"
     sodipodi:nodetypes="scscccccccsscscscccs" />
  <path
     style="color:#000000;display:inline;overflow:visible;visibility:visible;fill:url(#linearGradient920);fill-opacity:1;fill-rule:nonzero;stroke:none;stroke-width:0.26457033;marker:none;enable-background:accumulate"
     d="m 1.2845041,0.1322881 c -0.80473289,0 -0.89132149,0.0817496 -0.88737679,0.8792492 V 2.1165654 3.221591 c -0.00394,0.7975022 0.082644,0.8792518 0.88737679,0.8792518 h 1.6645336 c 0.8047356,0 0.8873794,-0.081739 0.8873794,-0.8792518 V 2.1165654 0.9826912 L 2.9765636,0.1322881 Z"
     id="path918"
     inkscape:connector-curvature="0"
     sodipodi:nodetypes="scccssscccs" />
  <path
     style="display:inline;fill:#ffffff;stroke-width:0.10366295;enable-background:new"
     inkscape:connector-curvature="0"
     id="path1042"
     d="M 1.735598,2.5581394 C 1.8015117,2.4289454 1.8764217,2.283385 1.9363793,2.1372471 v 0 l 0.023707,-0.057689 C 1.8817711,1.7815439 1.8348102,1.5423267 1.8767635,1.3876462 v 0 c 0.011294,-0.040327 0.058001,-0.064794 0.1079375,-0.064794 v 0 l 0.030429,4.471e-4 h 0.00559 c 0.068365,-0.00105 0.1005556,0.085915 0.1042083,0.1197264 v 0 c 0.00603,0.056311 -0.020019,0.1516116 -0.020019,0.1516116 v 0 c 0,-0.038483 0.00151,-0.1006675 -0.022782,-0.1543269 v 0 c -0.028273,-0.06209 -0.05528,-0.099183 -0.079493,-0.1050625 v 0 c -0.012225,0.00817 -0.024108,0.025074 -0.028179,0.057601 v 0 c -0.00843,0.045606 -0.010958,0.1031713 -0.010958,0.1328467 v 0 c 0,0.1048446 0.020644,0.2432292 0.061212,0.3858852 v 0 c 0.00765,-0.022087 0.014387,-0.043308 0.019742,-0.063192 v 0 c 0.00832,-0.031337 0.061206,-0.2390639 0.061206,-0.2390639 v 0 c 0,0 -0.013327,0.2765159 -0.031943,0.3601807 v 0 c -0.00399,0.01768 -0.00839,0.035166 -0.012973,0.053065 v 0 c 0.066898,0.1869186 0.1746938,0.3537473 0.3032869,0.4738154 v 0 c 0.050702,0.047385 0.1147363,0.085591 0.1753417,0.1204157 v 0 c 0.132352,-0.018912 0.2542111,-0.027843 0.3558742,-0.026718 v 0 c 0.1348794,0.00178 0.2338853,0.021727 0.2739767,0.061218 v 0 c 0.019631,0.019195 0.027596,0.042377 0.03007,0.068364 v 0 c 5.82e-4,0.010109 -0.00434,0.033864 -0.00578,0.039827 v 0 c 0.00146,-0.00722 0.00146,-0.042708 -0.10683,-0.077267 v 0 c -0.085273,-0.02726 -0.2448672,-0.026412 -0.4363693,-0.00603 v 0 c 0.2214959,0.1083704 0.4372886,0.1622125 0.5056768,0.1299331 v 0 c 0.016721,-0.00815 0.036998,-0.035932 0.036998,-0.035932 v 0 c 0,0 -0.012054,0.054767 -0.020708,0.068459 v 0 c -0.011046,0.014877 -0.032715,0.030989 -0.053259,0.036421 v 0 C 3.0110184,2.903892 2.7298833,2.8372124 2.4847983,2.6971721 v 0 C 2.2109746,2.7374993 1.9102564,2.8119967 1.6692071,2.8910604 v 0 C 1.4323288,3.3061908 1.2542415,3.4968505 1.1093644,3.4243206 v 0 l -0.053265,-0.026783 c -0.021651,-0.012385 -0.024956,-0.042531 -0.019949,-0.06708 v 0 c 0.016891,-0.08264 0.1205159,-0.2071088 0.3286672,-0.331401 v 0 c 0.022405,-0.013557 0.1222069,-0.066326 0.1222069,-0.066326 v 0 c 0,0 -0.073885,0.071511 -0.091194,0.085544 v 0 C 1.2296916,3.1544208 1.1070725,3.3257034 1.1101302,3.392106 v 0 l 6.006e-4,0.00579 C 1.2518613,3.3777848 1.4635065,3.0905279 1.735598,2.5581394 m 0.086227,0.044151 C 1.776378,2.6878814 1.731957,2.7672397 1.6909461,2.8401055 v 0 C 1.9178035,2.745058 2.1619694,2.6842344 2.3943936,2.6410265 v 0 c -0.031236,-0.021569 -0.06156,-0.04441 -0.090092,-0.068553 v 0 C 2.1763092,2.4641116 2.0787288,2.3289202 2.0079958,2.1866589 v 0 C 1.9631382,2.3075105 1.9097969,2.4359327 1.8218254,2.6022901" />
  <path
     style="color:#000000;display:inline;overflow:visible;visibility:visible;opacity:0.1;fill:#ffffff;fill-opacity:1;fill-rule:nonzero;stroke:none;stroke-width:0.26457033;marker:none;enable-background:accumulate"
     d="M 2.1167101,0.26457061 V 3.968555 h 0.7683915 c 0.7428341,0 0.8190304,-0.076236 0.8190304,-0.8205807 V 2.1165628 1.0582815 L 2.9104211,0.26457061 Z"
     id="path1009"
     inkscape:connector-curvature="0"
     sodipodi:nodetypes="ccsscccc" />
  <path
     style="color:#000000;display:inline;overflow:visible;visibility:visible;opacity:0.1;fill:#ffffff;fill-opacity:1;fill-rule:nonzero;stroke:none;stroke-width:0.26457033;marker:none;enable-background:accumulate"
     d="m 0.52928811,2.1165628 v 1.0314115 c -0.00365,0.7443342 0.076199,0.8205807 0.81903039,0.8205807 h 1.5367831 c 0.7428341,0 0.8190304,-0.076236 0.8190304,-0.8205807 V 2.1165628 Z"
     id="path1016"
     inkscape:connector-curvature="0" />
  <path
     style="color:#000000;font-style:normal;font-variant:normal;font-weight:normal;font-stretch:normal;font-size:medium;line-height:normal;font-family:sans-serif;font-variant-ligatures:normal;font-variant-position:normal;font-variant-caps:normal;font-variant-numeric:normal;font-variant-alternates:normal;font-feature-settings:normal;text-indent:0;text-align:start;text-decoration:none;text-decoration-line:none;text-decoration-style:solid;text-decoration-color:#000000;letter-spacing:normal;word-spacing:normal;text-transform:none;writing-mode:lr-tb;direction:ltr;text-orientation:mixed;dominant-baseline:auto;baseline-shift:baseline;text-anchor:start;white-space:normal;shape-padding:0;clip-rule:nonzero;display:inline;overflow:visible;visibility:visible;opacity:0.4;isolation:auto;mix-blend-mode:normal;color-interpolation:sRGB;color-interpolation-filters:linearRGB;solid-color:#000000;solid-opacity:1;vector-effect:none;fill:#000000;fill-opacity:1;fill-rule:nonzero;stroke:none;stroke-width:0.52914065;stroke-linecap:butt;stroke-linejoin:miter;stroke-miterlimit:4;stroke-dasharray:none;stroke-dashoffset:0;stroke-opacity:1;marker:none;color-rendering:auto;image-rendering:auto;shape-rendering:auto;text-rendering:auto;enable-background:accumulate"
     d="m 1.3483185,3e-7 c -0.1902367,0 -0.3444309,0.003678 -0.48573259,0.0273883 -0.1413044,0.023732 -0.2826405,0.0730955 -0.3906566,0.18085762 -0.1080135,0.10775949 -0.1578347,0.2495533 -0.1813735,0.39116985 -0.0235468,0.14162449 -0.0267613,0.29644573 -0.0258485,0.48728563 v 1.0298611 1.0314115 c -7.938e-4,0.1900038 0.00238,0.3445631 0.025848,0.4857352 0.023547,0.1416192 0.073357,0.2834104 0.1813735,0.3911699 0.1080161,0.1077621 0.2493522,0.1571389 0.3906566,0.1808576 C 1.0038871,4.229469 1.1580813,4.233125 1.348318,4.233125 h 1.5367831 c 0.1902367,0 0.3440949,-0.00362 0.4852167,-0.027388 C 3.5114428,4.181979 3.6527948,4.132208 3.7604564,4.0243634 3.868118,3.9165193 3.9176217,3.7749504 3.941314,3.6337095 3.9650089,3.492466 3.9687023,3.3385787 3.9687023,3.1479743 V 2.1165628 0.9487336 L 3.019969,3e-7 Z m 0,0.26457031 H 2.9104211 L 3.704132,1.0582815 v 1.0582813 1.0314115 c 0,0.7443448 -0.076196,0.8205807 -0.8190304,0.8205807 H 1.3483185 c -0.74283149,0 -0.82268139,-0.076246 -0.81903039,-0.8205807 V 2.1165628 1.0851513 C 0.52564761,0.34081713 0.60548701,0.26457061 1.3483185,0.26457061 Z"
     id="path928"
     inkscape:connector-curvature="0"
     sodipodi:nodetypes="scscccccccsscscscccsscccssscccs" />
  <path
     style="color:#000000;font-style:normal;font-variant:normal;font-weight:normal;font-stretch:normal;font-size:medium;line-height:normal;font-family:sans-serif;font-variant-ligatures:normal;font-variant-position:normal;font-variant-caps:normal;font-variant-numeric:normal;font-variant-alternates:normal;font-feature-settings:normal;text-indent:0;text-align:start;text-decoration:none;text-decoration-line:none;text-decoration-style:solid;text-decoration-color:#000000;letter-spacing:normal;word-spacing:normal;text-transform:none;writing-mode:lr-tb;direction:ltr;text-orientation:mixed;dominant-baseline:auto;baseline-shift:baseline;text-anchor:start;white-space:normal;shape-padding:0;clip-rule:nonzero;display:inline;overflow:visible;visibility:visible;opacity:0.4;isolation:auto;mix-blend-mode:normal;color-interpolation:sRGB;color-interpolation-filters:linearRGB;solid-color:#000000;solid-opacity:1;vector-effect:none;fill:url(#linearGradient993);fill-opacity:1;fill-rule:nonzero;stroke:none;stroke-width:0.52914065;stroke-linecap:butt;stroke-linejoin:miter;stroke-miterlimit:4;stroke-dasharray:none;stroke-dashoffset:0;stroke-opacity:1;marker:none;color-rendering:auto;image-rendering:auto;shape-rendering:auto;text-rendering:auto;enable-background:accumulate"
     clip-path="none"
     d="m 1.3483185,0.26457061 c -0.74283149,0 -0.82267089,0.0762465 -0.81903039,0.82058069 v 1.0314115 1.0314115 c -0.00365,0.7443342 0.076199,0.8205807 0.81903039,0.8205807 h 1.5367831 c 0.7428341,0 0.8190304,-0.076236 0.8190304,-0.8205807 V 2.1165628 1.0582815 L 2.9104211,0.26457061 Z m 0,0.26457031 H 2.9104211 L 3.4395617,1.0582815 v 1.0582813 1.0314115 c 0,0.1815667 -0.00582,0.3159975 -0.019631,0.3984058 -0.013811,0.082406 -0.029841,0.09959 -0.034103,0.1038651 -0.00426,0.00426 -0.021245,0.020293 -0.1033491,0.034103 -0.082112,0.013816 -0.2161962,0.019636 -0.3973767,0.019636 H 1.3483185 c -0.1811778,0 -0.315397,-0.0063 -0.39788729,-0.02016 -0.082493,-0.013837 -0.1000155,-0.029235 -0.104381,-0.033587 -0.00437,-0.00437 -0.019949,-0.021324 -0.03359,-0.1033491 -0.013625,-0.08203 -0.019499,-0.216564 -0.018599,-0.3978899 V 3.148469 2.1165628 1.0846354 1.0841063 c -7.937e-4,-0.1813286 0.00497,-0.31585996 0.018599,-0.39788998 0.013625,-0.08203 0.029222,-0.0989916 0.03359,-0.1033491 0.00436,-0.004365 0.02188,-0.0197369 0.104381,-0.0335872 0.08249,-0.013837 0.21670949,-0.0201603 0.39788729,-0.0201603 z"
     id="path937"
     inkscape:connector-curvature="0"
     sodipodi:nodetypes="scccssscccsscccscccssccccccccsccs" />
  <path
     inkscape:connector-curvature="0"
     style="color:#000000;display:inline;overflow:visible;visibility:visible;opacity:0.6;fill:#830e21;fill-opacity:1;fill-rule:nonzero;stroke:none;stroke-width:0.06614863;marker:none;enable-background:accumulate"
     d="M 3.704132,1.3228519 V 1.0582815 L 2.9104211,0.26457061 H 2.6458507 V 0.669514 0.6850443 0.6933783 c 0,0.5476103 0.073304,0.6320506 0.6221715,0.6293652 z"
     id="rect4158-0-3-62-2-3-7-3"
     sodipodi:nodetypes="ccccccscc" />
  <path
     inkscape:connector-curvature="0"
     style="color:#000000;display:inline;overflow:visible;visibility:visible;fill:#f66f7e;fill-opacity:1;fill-rule:nonzero;stroke:none;stroke-width:0.06614863;marker:none;enable-background:accumulate"
     d="M 3.704132,1.058181 2.9104211,0.26457061 v 0.29438474 0.0128317 0.006879 c 0,0.45177765 0.020822,0.48176405 0.4736364,0.47954955 z"
     id="rect4158-0-3-62-6-5-5"
     sodipodi:nodetypes="ccccscc" />
</svg>
